src/assets/svg/icons/fa/nuevos/classic/duotone/face-grin-beam-sweat classic duotone.svg

<svg xmlns="http://www.w3.org/2000/svg" viewBox="0 0 512 512"><!--! Font Awesome Pro 6.4.0 by @fontawesome - https://fontawesome.com License - https://fontawesome.com/license (Commercial License) Copyright 2023 Fonticons, Inc. --><defs><style>.fa-secondary{opacity:.4}</style></defs><path class="fa-primary" d="M512 81c0 26-21.5 47-48 47s-48-21-48-47c0-20 28.4-60.4 41.6-77.7c3.2-4.4 9.6-4.4 12.8 0C483.4 20.6 512 61 512 81zM217.6 228.8l0 0 0 0-.2-.2c-.2-.2-.4-.5-.7-.9c-.6-.8-1.6-2-2.8-3.4c-2.5-2.8-6-6.6-10.2-10.3c-8.8-7.8-18.8-14-27.7-14s-18.9 6.2-27.7 14c-4.2 3.7-7.7 7.5-10.2 10.3c-1.2 1.4-2.2 2.6-2.8 3.4c-.3 .4-.6 .7-.7 .9l-.2 .2 0 0 0 0 0 0c-2.1 2.8-5.7 3.9-8.9 2.8s-5.5-4.1-5.5-7.6c0-17.9 6.7-35.6 16.6-48.8c9.8-13 23.9-23.2 39.4-23.2s29.6 10.2 39.4 23.2c9.9 13.2 16.6 30.9 16.6 48.8c0 3.4-2.2 6.5-5.5 7.6s-6.9 0-8.9-2.8l0 0 0 0zm160 0l0 0-.2-.2c-.2-.2-.4-.5-.7-.9c-.6-.8-1.6-2-2.8-3.4c-2.5-2.8-6-6.6-10.2-10.3c-8.8-7.8-18.8-14-27.7-14s-18.9 6.2-27.7 14c-4.2 3.7-7.7 7.5-10.2 10.3c-1.2 1.4-2.2 2.6-2.8 3.4c-.3 .4-.6 .7-.7 .9l-.2 .2 0 0 0 0 0 0c-2.1 2.8-5.7 3.9-8.9 2.8s-5.5-4.1-5.5-7.6c0-17.9 6.7-35.6 16.6-48.8c9.8-13 23.9-23.2 39.4-23.2s29.6 10.2 39.4 23.2c9.9 13.2 16.6 30.9 16.6 48.8c0 3.4-2.2 6.5-5.5 7.6s-6.9 0-8.9-2.8l0 0 0 0 0 0z"/><path class="fa-secondary" d="M256 0c51.4 0 99.3 15.2 139.4 41.2c-1.5 3.1-3 6.2-4.3 9.3c-3.4 8-7.1 19-7.1 30.5c0 44.3 36.6 79 80 79c9.6 0 18.8-1.7 27.4-4.8c13.3 30.9 20.6 65 20.6 100.8c0 141.4-114.6 256-256 256S0 397.4 0 256S114.6 0 256 0zM388.1 312.8c-39.7 12.2-84.5 19-131.8 19s-92.1-6.8-131.8-19c-12.3-3.8-24.3 6.9-19.3 18.7c25 59.1 83.2 100.5 151.1 100.5s126.2-41.4 151.1-100.5c5-11.8-7-22.5-19.3-18.7zm-170.5-84l0 0 0 0c2.1 2.8 5.7 3.9 8.9 2.8s5.5-4.1 5.5-7.6c0-17.9-6.7-35.6-16.6-48.8c-9.8-13-23.9-23.2-39.4-23.2s-29.6 10.2-39.4 23.2C126.7 188.4 120 206.1 120 224c0 3.4 2.2 6.5 5.5 7.6s6.9 0 8.9-2.8l0 0 0 0 0 0 .2-.2c.2-.2 .4-.5 .7-.9c.6-.8 1.6-2 2.8-3.4c2.5-2.8 6-6.6 10.2-10.3c8.8-7.8 18.8-14 27.7-14s18.9 6.2 27.7 14c4.2 3.7 7.7 7.5 10.2 10.3c1.2 1.4 2.2 2.6 2.8 3.4c.3 .4 .6 .7 .7 .9l.2 .2 0 0 0 0zm160 0l0 0 0 0 0 0c2.1 2.8 5.7 3.9 8.9 2.8s5.5-4.1 5.5-7.6c0-17.9-6.7-35.6-16.6-48.8c-9.8-13-23.9-23.2-39.4-23.2s-29.6 10.2-39.4 23.2C286.7 188.4 280 206.1 280 224c0 3.4 2.2 6.5 5.5 7.6s6.9 0 8.9-2.8l0 0 0 0 0 0 .2-.2c.2-.2 .4-.5 .7-.9c.6-.8 1.6-2 2.8-3.4c2.5-2.8 6-6.6 10.2-10.3c8.8-7.8 18.8-14 27.7-14s18.9 6.2 27.7 14c4.2 3.7 7.7 7.5 10.2 10.3c1.2 1.4 2.2 2.6 2.8 3.4c.3 .4 .6 .7 .7 .9l.2 .2 0 0z"/></svg>

<svg xmlns="http://www.w3.org/2000/svg" viewBox="0 0 512 512"><defs><style>.fa-secondary{opacity:.4}</style></defs><path class="fa-primary" d="M512 81.01C512 107 490.5 128 464 128C437.5 128 416 107 416 81.01C416 61.02 444.4 20.65 457.6 3.281C460.8-1.094 467.2-1.094 470.4 3.281C483.4 20.65 512 61.02 512 81.01H512zM217.6 228.8L217.6 228.8L217.4 228.5C217.2 228.3 217 228 216.7 227.6C216 226.8 215.1 225.7 213.9 224.3C211.4 221.4 207.9 217.7 203.7 213.1C194.9 206.2 184.8 200 176 200C167.2 200 157.1 206.2 148.3 213.1C144.1 217.7 140.6 221.4 138.1 224.3C136.9 225.7 135.1 226.8 135.3 227.6C134.1 228 134.8 228.3 134.6 228.5L134.4 228.8L134.4 228.8C132.3 231.6 128.7 232.7 125.5 231.6C122.2 230.5 120 227.4 120 224C120 206.1 126.7 188.4 136.6 175.2C146.4 162.2 160.5 152 176 152C191.5 152 205.6 162.2 215.4 175.2C225.3 188.4 232 206.1 232 224C232 227.4 229.8 230.5 226.5 231.6C223.3 232.7 219.7 231.6 217.6 228.8V228.8zM377.6 228.8L377.4 228.5C377.2 228.3 377 228 376.7 227.6C376 226.8 375.1 225.7 373.9 224.3C371.4 221.4 367.9 217.7 363.7 213.1C354.9 206.2 344.8 200 336 200C327.2 200 317.1 206.2 308.3 213.1C304.1 217.7 300.6 221.4 298.1 224.3C296.9 225.7 295.1 226.8 295.3 227.6C294.1 228 294.8 228.3 294.6 228.5L294.4 228.8L294.4 228.8C292.3 231.6 288.7 232.7 285.5 231.6C282.2 230.5 280 227.4 280 224C280 206.1 286.7 188.4 296.6 175.2C306.4 162.2 320.5 152 336 152C351.5 152 365.6 162.2 375.4 175.2C385.3 188.4 392 206.1 392 224C392 227.4 389.8 230.5 386.5 231.6C383.3 232.7 379.7 231.6 377.6 228.8L377.6 228.8z"/><path class="fa-secondary" d="M256 .0003C307.4 .0003 355.3 15.15 395.4 41.23C393.9 44.32 392.4 47.43 391.1 50.53C387.8 58.57 384 69.57 384 81.01C384 125.4 420.6 160 464 160C473.6 160 482.8 158.3 491.4 155.2C504.7 186.1 512 220.2 512 256C512 397.4 397.4 512 256 512C114.6 512 0 397.4 0 256C0 114.6 114.6 0 256 0V.0003zM256.3 331.8C208.9 331.8 164.1 324.9 124.5 312.8C112.2 309 100.2 319.7 105.2 331.5C130.1 390.6 188.4 432 256.3 432C324.2 432 382.4 390.6 407.4 331.5C412.4 319.7 400.4 309 388.1 312.8C348.4 324.9 303.7 331.8 256.3 331.8H256.3zM226.5 231.6C229.8 230.5 232 227.4 232 224C232 206.1 225.3 188.4 215.4 175.2C205.6 162.2 191.5 152 176 152C160.5 152 146.4 162.2 136.6 175.2C126.7 188.4 120 206.1 120 224C120 227.4 122.2 230.5 125.5 231.6C128.7 232.7 132.3 231.6 134.4 228.8L134.4 228.8L134.6 228.5C134.8 228.3 134.1 228 135.3 227.6C135.1 226.8 136.9 225.7 138.1 224.3C140.6 221.4 144.1 217.7 148.3 213.1C157.1 206.2 167.2 200 176 200C184.8 200 194.9 206.2 203.7 213.1C207.9 217.7 211.4 221.4 213.9 224.3C215.1 225.7 216 226.8 216.7 227.6C217 228 217.2 228.3 217.4 228.5L217.6 228.8L217.6 228.8C219.7 231.6 223.3 232.7 226.5 231.6V231.6zM377.6 228.8C379.7 231.6 383.3 232.7 386.5 231.6C389.8 230.5 392 227.4 392 224C392 206.1 385.3 188.4 375.4 175.2C365.6 162.2 351.5 152 336 152C320.5 152 306.4 162.2 296.6 175.2C286.7 188.4 280 206.1 280 224C280 227.4 282.2 230.5 285.5 231.6C288.7 232.7 292.3 231.6 294.4 228.8L294.4 228.8L294.6 228.5C294.8 228.3 294.1 228 295.3 227.6C295.1 226.8 296.9 225.7 298.1 224.3C300.6 221.4 304.1 217.7 308.3 213.1C317.1 206.2 327.2 200 336 200C344.8 200 354.9 206.2 363.7 213.1C367.9 217.7 371.4 221.4 373.9 224.3C375.1 225.7 376 226.8 376.7 227.6C377 228 377.2 228.3 377.4 228.5L377.6 228.8L377.6 228.8z"/></svg>
